assets/sherpax-testnet/logo.svg

<svg width="64" height="64" viewBox="0 0 64 64" fill="none" xmlns="http://www.w3.org/2000/svg">
<rect width="64" height="64" fill="white"/>
<path d="M64 32C64 14.3269 49.6731 0 32 0C14.3269 0 0 14.3269 0 32C0 49.6731 14.3269 64 32 64C49.6731 64 64 49.6731 64 32Z" fill="white"/>
<path d="M34.8299 24.4933L29.1456 18.809C29.0346 18.7018 28.8586 18.7018 28.7476 18.809L26.4946 21.062C26.3914 21.1746 26.3914 21.3475 26.4946 21.4601L32.1111 27.1005C33.4965 28.4869 33.4965 30.7336 32.1111 32.12C30.7486 33.4298 28.59 33.4139 27.2469 32.0842L19.0629 23.8803C17.7237 22.5354 17.7061 20.3666 19.0231 19.0001C19.6877 18.3341 20.5899 17.9598 21.5308 17.9598C22.4717 17.9598 23.374 18.3341 24.0386 19.0001L24.8546 19.8161C24.9656 19.9233 25.1416 19.9233 25.2526 19.8161L27.5096 17.5631C27.6128 17.4505 27.6128 17.2777 27.5096 17.165L26.6259 16.2933C25.2673 14.9345 23.4245 14.1711 21.5029 14.1711C19.5814 14.1711 17.7386 14.9345 16.38 16.2933C13.5543 19.1257 13.5543 23.7108 16.38 26.5433L24.5759 34.7432C25.9346 36.102 27.7774 36.8654 29.6989 36.8654C31.6205 36.8654 33.4633 36.102 34.8219 34.7432C37.6541 31.9148 37.6577 27.3261 34.8299 24.4933Z" fill="#EA754B"/>
<path d="M47.9692 16.2935C46.6113 14.9349 44.7691 14.1716 42.8482 14.1716C40.9274 14.1716 39.0852 14.9349 37.7272 16.2935L32.1982 21.8424L34.8493 24.4934L40.3902 18.9485C41.7597 17.6575 43.9075 17.6896 45.2377 19.0209C46.568 20.3523 46.5983 22.5001 45.3062 23.8685L44.4345 24.7402C44.3273 24.8513 44.3273 25.0272 44.4345 25.1383L46.6875 27.3952C46.8001 27.4985 46.9729 27.4985 47.0855 27.3952L47.9573 26.5195C50.7747 23.6949 50.7801 19.1246 47.9692 16.2935Z" fill="#34C69A"/>
<path d="M43.2054 26.3921C43.0928 26.2889 42.92 26.2889 42.8073 26.3921L37.1112 32.0843C35.7544 33.4398 33.556 33.4398 32.1991 32.0843C30.8612 30.728 30.8612 28.5485 32.1991 27.1922L29.5162 24.5212C27.3701 26.683 26.8025 29.955 28.0952 32.7132C29.2915 35.25 31.8465 36.8665 34.6512 36.861C36.5683 36.8612 38.407 36.0994 39.7622 34.7433L45.4584 29.0591C45.5616 28.9465 45.5616 28.7736 45.4584 28.661L43.2054 26.3921Z" fill="#34C69A"/>
<path d="M47.9705 37.6568L42.4256 32.084L39.7626 34.7549L45.3076 40.3038C46.645 41.6497 46.6574 43.819 45.3354 45.18C44.671 45.8448 43.7696 46.2184 42.8297 46.2184C41.8897 46.2184 40.9883 45.8448 40.3239 45.18L39.5039 44.36C39.3913 44.2568 39.2185 44.2568 39.1058 44.36L36.8528 46.613C36.7457 46.7241 36.7457 46.9 36.8528 47.0111L37.649 47.8072C40.5038 50.6735 45.1368 50.6984 48.0223 47.8629C50.8132 45.0238 50.7954 40.4661 47.9825 37.6488L47.9705 37.6568Z" fill="#F6C94A"/>
<path d="M37.8751 43.1182C37.9823 43.0072 37.9823 42.8312 37.8751 42.7202L32.1988 37.024C31.5425 36.3736 31.1732 35.488 31.1732 34.564C31.1732 33.64 31.5425 32.7544 32.1988 32.104C33.5533 30.7617 35.7364 30.7617 37.0909 32.104L39.7619 29.4251C37.6013 27.2768 34.3278 26.7089 31.5699 28.004C29.4347 29.0094 27.9227 30.9914 27.5171 33.3163C27.1115 35.6412 27.8632 38.018 29.5318 39.687L35.2121 45.3712C35.3231 45.4784 35.4991 45.4784 35.6101 45.3712L37.8751 43.1182Z" fill="#F6C94A"/>
<path d="M36.5267 32.1039C36.4521 31.8884 36.3657 31.6771 36.2679 31.471C35.5499 29.9435 34.3227 28.7135 32.7969 27.992C32.5979 27.8965 32.3988 27.8129 32.1839 27.7372C29.5509 26.7859 26.6054 27.4386 24.6208 29.4131L27.2639 32.084C27.5104 31.842 27.7906 31.6368 28.0958 31.475C29.4407 30.7681 31.0887 31.0145 32.168 32.084C33.242 33.1685 33.4826 34.827 32.7611 36.1721C32.6049 36.466 32.4049 36.7344 32.168 36.9682L34.8349 39.6351C36.8006 37.6592 37.4584 34.7307 36.5267 32.1039ZM21.5597 37.7842L24.6009 34.743L21.9379 32.084L18.8967 35.1252C18.7935 35.2378 18.7935 35.4106 18.8967 35.5232L21.1497 37.7802C21.2629 37.892 21.4444 37.8938 21.5597 37.7842Z" fill="#46AEE2"/>
<path d="M23.9711 45.22C22.6103 46.5754 20.4084 46.5709 19.0531 45.2101C17.6978 43.8493 17.7022 41.6474 19.063 40.2921L19.9268 39.4243C20.034 39.3133 20.034 39.1373 19.9268 39.0263L17.6738 36.7693C17.5612 36.6661 17.3884 36.6661 17.2758 36.7693L16.408 37.6371C14.3973 39.4226 13.5411 42.175 14.1839 44.786C14.8268 47.3971 16.863 49.4373 19.4728 50.0853C22.0827 50.7332 24.8367 49.8823 26.6261 47.8751L32.1989 42.3262L29.516 39.6473L23.9711 45.22Z" fill="#46AEE2"/>
</svg>

<svg viewBox="0 0 64 64" xmlns="http://www.w3.org/2000/svg">
    <path fill="#fff" d="M64 32C64 14.327 49.673 0 32 0 14.327 0 0 14.327 0 32c0 17.673 14.327 32 32 32 17.673 0 32-14.327 32-32Z"/>
    <path fill="#ea754b" d="m34.83 24.493-5.684-5.684a.286.286 0 0 0-.398 0l-2.253 2.253a.295.295 0 0 0 0 .398l5.616 5.64a3.55 3.55 0 0 1 0 5.02 3.483 3.483 0 0 1-4.864-.036l-8.184-8.204a3.487 3.487 0 0 1-.04-4.88 3.543 3.543 0 0 1 5.016 0l.816.816a.286.286 0 0 0 .398 0l2.257-2.253a.295.295 0 0 0 0-.398l-.884-.872a7.244 7.244 0 0 0-10.246 0 7.256 7.256 0 0 0 0 10.25l8.196 8.2a7.245 7.245 0 0 0 10.246 0 7.249 7.249 0 0 0 .008-10.25Z"/>
    <path fill="#34c69a" d="M47.97 16.294a7.24 7.24 0 0 0-10.243 0l-5.529 5.548 2.651 2.651 5.541-5.544a3.479 3.479 0 0 1 4.916 4.92l-.871.871a.287.287 0 0 0 0 .398l2.252 2.257a.294.294 0 0 0 .398 0l.872-.875a7.248 7.248 0 0 0 .012-10.226Z"/>
    <path fill="#34c69a" d="M43.205 26.392a.295.295 0 0 0-.398 0l-5.696 5.692a3.475 3.475 0 0 1-4.912 0 3.483 3.483 0 0 1 0-4.892l-2.683-2.67a7.257 7.257 0 0 0-1.42 8.191 7.233 7.233 0 0 0 6.555 4.148 7.225 7.225 0 0 0 5.111-2.118l5.696-5.684a.295.295 0 0 0 0-.398l-2.253-2.269Z"/>
    <path fill="#f6c94a" d="m47.97 37.657-5.544-5.573-2.663 2.67 5.545 5.55a3.479 3.479 0 0 1 .027 4.876 3.543 3.543 0 0 1-5.011 0l-.82-.82a.295.295 0 0 0-.398 0l-2.253 2.253a.287.287 0 0 0 0 .398l.796.796a7.36 7.36 0 0 0 10.373.056 7.257 7.257 0 0 0-.04-10.214l-.011.008Z"/>
    <path fill="#f6c94a" d="M37.875 43.118a.286.286 0 0 0 0-.398L32.2 37.024a3.463 3.463 0 0 1 0-4.92 3.475 3.475 0 0 1 4.892 0l2.67-2.679a7.249 7.249 0 0 0-8.191-1.421 7.249 7.249 0 0 0-2.038 11.683l5.68 5.684a.286.286 0 0 0 .398 0l2.265-2.253Z"/>
    <path fill="#46aee2" d="M36.527 32.104a6.23 6.23 0 0 0-.26-.633 7.269 7.269 0 0 0-4.083-3.734 7.237 7.237 0 0 0-7.563 1.676l2.643 2.671a3.483 3.483 0 0 1 4.904 0 3.475 3.475 0 0 1 .593 4.088 3.284 3.284 0 0 1-.593.796l2.667 2.667a7.245 7.245 0 0 0 1.692-7.531Zm-14.967 5.68 3.04-3.041-2.662-2.659-3.041 3.041a.295.295 0 0 0 0 .398l2.253 2.257a.295.295 0 0 0 .41.004Z"/>
    <path fill="#46aee2" d="M23.971 45.22a3.477 3.477 0 1 1-4.908-4.928l.864-.868a.286.286 0 0 0 0-.398l-2.253-2.257a.295.295 0 0 0-.398 0l-.868.868a7.245 7.245 0 1 0 10.218 10.238l5.573-5.549-2.683-2.679-5.545 5.573Z"/>
</svg>
